X:1
T:For a Worldwide Revival
T:For a Worldwide Revival
T:Lelia Naylor Morris
T:Lelia Naylor Morris, 1910
T:Public Domain Courtesy of the Cyber Hymnal™
T:Public Domain Courtesy of the Cyber Hymnal™
C:Lelia Naylor Morris
Z:Public Domain
Z:Courtesy of the Cyber Hymnal™
%%score ( 1 2 ) ( 3 4 )
L:1/8
Q:1/4=110
M:6/4
K:C
V:1 treble 
V:2 treble 
V:3 bass 
V:4 bass 
V:1
 [EG]>[EG] | [EG]2 [EA]2 [EB]2 [Ec]2 [EB]2 [EA][EA] | [EG]2 C2 [B,D]2 [CE]4 [EG]>[EG] | %3
w: 1.~For a|world- wide re- viv- al, Bless- èd|Mas- ter, we pray. Let the|
w: 2.~Send the|“show- ers of bless- ing,” As de-|clared in Thy Word, Let the|
w: 3.~There’s a|“sound of a go- ing In the|mul- be- rry trees,” News of|
 [EG]2 [EA]2 [EB]2 [Ed]2 [Ec]2 [EG][Ec] | [DB]2 [GB]2 [^FA]2 [DG]4 [=FG]>[FG] | %5
w: power of the High- est Be up-|on us to- day; For this|
w: “Spir- it of prom- ise” On all|flesh be out- poured; Send the|
w: na- tions a- wak- ing Borne up-|on ev- ’ry breeze; For the|
 [FG]2 [FA]2 [FB]2 [Fd]2 [Ec]2 [_Bc]>[Bc] | [Ac]2 [GB]2 [FA]2 [EG]4 E>D | C2 E2 A2 G2 E2 CD | %8
w: world, dear- ly pur- chased By the|blood of God’s Son, Back from|Sa- tan’s do- min- ion And from|
w: “lat- ter rain” on us, Till the|land o- ver- flows, Till the|de- sert, re- joic- ing, Blos- soms|
w: prayers of His child- ren, God in|mer- cy doth own. The re-|viv- al’s be- gin- ning, And the|
 [CE]2 [CE]2 [B,D]2 C4 ||"^Refrain" [EG]>[EG] | G2 d2 [E^c]2 [Fd]4 [FG]>[FG] | %11
w: sin must be won.|||
w: forth as the rose.|Send the|pow- er, O Lord, Send the|
w: power’s com- ing down.|||
 [EG]2 [Ge]2 [^F^d]2 [Ge]4 [Ge]>[Ge] | [^Ge]2 [Gd]2 [Ac]2 [Ac]2 [EB]2 [EA][EA] | %13
w: ||
w: pow- er, O Lord. Send the|Ho- ly Ghost pow- er; Let it|
w: ||
 [Fd]2 [FA]2 [Fe]2 [Fd]4 [FG]>[FG] | [Af]2 [Ge]2 [Fd]2 [Fd]2 [Ec]2 [EG][EG] | %15
w: ||
w: now be out- poured. Send it|surg- ing and sweep- ing Like the|
w: ||
 [FA]2 [F^G]2 [FA]2 !fermata![Fc]4 [FA]>[FA] | [Af]2 [Ae]2 [Ad]2 [Gc]2 !fermata![EG]2 [Gc][Gc] | %17
w: ||
w: waves of the sea. Send a|world- wide re- viv- al, And be-|
w: ||
 [Ad]2 [Gc]2 [FB]2 [Ec]4 |] %18
w: |
w: gin it in me.|
w: |
V:2
 x2 | x12 | x2 C2 x8 | x12 | x12 | x12 | x12 | x12 | x10 || x2 | F4 x8 | x12 | x12 | x12 | x12 | %15
 x12 | x12 | x10 |] %18
V:3
 [C,C]>[C,C] | [C,C]2 [C,G,]2 [C,G,]2 [C,G,]2 [C,G,]2 [C,C][C,C] | %2
 [C,C]2 [E,G,]2 G,2 [C,G,]4 [C,C]>[C,C] | [C,C]2 [C,G,]2 [C,G,]2 [C,G,]2 [C,G,]2 [C,C][C,G,] | %4
 [D,G,]2 [D,D]2 [D,C]2 [G,B,]4 [G,B,]>[G,B,] | %5
 [G,B,]2 [G,C]2 [G,D]2 [G,B,]2 [C,G,]2 [E,G,]>[E,G,] | [F,A,]2 [F,B,]2 [F,C]2 [C,C]4 E,>D, | %7
 C,2 E,2 A,2 G,2 E,2 [E,G,][F,A,] | G,2 G,2 [G,,F,]2 [C,E,]4 || [C,C]>[C,C] | %10
 [G,B,]4 [G,^A,]2 [G,B,]4 [G,B,]>[G,B,] | [C,C]4 [C,A,]2 [C,G,]4 [C,C]>[C,C] | %12
 [E,B,]2 [E,E]2 [E,E]2 [E,E]2 [^G,D]2 [A,C][A,C] | [D,C]2 [D,C]2 [D,C]2 [G,B,]4 [G,B,]>[G,B,] | %14
 [G,B,]2 [G,C]2 [G,B,]2 [G,B,]2 [C,G,]2 [C,C][C,C] | %15
 [F,C]2 [F,B,]2 [F,C]2 !fermata![F,A,]4 [F,C]>[F,C] | %16
 [D,D]2 [E,^C]2 [F,D]2 [G,E]2 !fermata![G,=C]2 [G,E][G,E] | [F,F]2 [G,E]2 [G,D]2 [C,C]4 |] %18
V:4
 x2 | x12 | x4 G,2 x6 | x12 | x12 | x12 | x10 E,>D, | x12 | x10 || x2 | x12 | x12 | x12 | x12 | %14
 x12 | x12 | x12 | x10 |] %18

